X: 2
T: Inventio 2
C: Johann Sebastian Bach
%%abc-version 2.0
%%abcx-abcm2ps-target-version 5.9.1 (29 Sep 2008)
%%abc-creator hum2abc beta
%%abcx-conversion-date 2021/01/28 10:10:55
%%abc-copyright Copyright 1994, David Huron
%%abc-edited-by David Huron
%%abcx-initial-encoding-date 1986 November
%%gracespace 0 6 6
%%humdrum-veritas 254128138
%%humdrum-veritas-data 495059175
%%linebreak <none>
%%barnumbers 0
L: 1/16
M: 4/4
N: Derived from inven02.krn
Q: 1/4=56
%%staves {1 2}
V: 1 clef=treble
V: 2 clef=bass
K: Eb
[V:1] z2 c =B c d e G A _B A F f e d c | 
[V:2] z16 | 
[V:1] =B a g f e d c B c d c d2< ~d2 c/ d/ | 
[V:2] z16 | 
[V:1] e d c d e f g2 !mordent!g2 f2 z2 f2 | 
[V:2] z2 C =B, C D E G, A, _B, A, F, F E D C | 
[V:1] !mordent!f2 e2 z2 d2 e2 A2- A F B F | 
[V:2] =B, A G F E D C B, C D C D2< ~D2 C/ D/ | 
[V:1] G2 e2- e d e B c e a g f e d c | 
[V:2] E D C D E F G2 !mordent!G2 F2 z2 F2 | 
[V:1] B d g f e d c B A c f c2< !mordent!d2 d | 
[V:2] !mordent!F2 E2 z2 D2 E2 A,2 A, F, B, F, | 
[V:1] e B c Bg4-g B c Ba4- | 
[V:2] G,2 E2- E D E B, C E A G F E D C | 
[V:1] a B e d g f a g c' b a g f b a b | 
[V:2] B, D G F E D C B, A, C F C2< !mordent!D2 D | 
[V:1] g b a b e g f g c d e f d e f g | 
[V:2] E B, C B,G4-G B, C B,A4- | 
[V:1] e f g a b a c' b a g f ad4- | 
[V:2] A B, E D G F A G c B A G F B A B | 
[V:1] d d g d e c d Bc4-c g ^f =a | 
[V:2] G2 E, F, G, =A, B, D, E, F, E, C, C B, A, G, | 
[V:1] c B c2- c ^f =e d2< b2 e2< f2 g | 
[V:2] ^F, E D C B, =A, G, F, G, A, G, A,2< ~A,2 G,/ A,/ | 
[V:1] g2 G ^F G =A B D E =F E C c B A G | 
[V:2] B, =A, G, A, B, C D2 !mordent!D2 C2 z2 C2 | 
[V:1] ^F e d c B =A G F G A G A2< ~A2 G/ A/ | 
[V:2] !mordent!C2 B,2 z2 =A,2 B,2 E,2- E, C, =F, C, | 
[V:1] B =A G A B c d2 !mordent!d2 c2 z2 c2 | 
[V:2] D,2 B,2- B, =A, B, F, G, B, E D C B, A, G, | 
[V:1] !mordent!c2 B2 z2 =A2 B2 E2- E C F C | 
[V:2] F, =A, D C B, A, G, F, E, G, C G,2< !mordent!A,2 A, | 
[V:1] D2 B2- B =A B F G B e d c B A G | 
[V:2] B, F, G, F,D4-D F, G, F,E4- | 
[V:1] F =A d c B A G F E G c G2< !mordent!A2 A | 
[V:2] E F, B, =A, D C E D G F E D C F E F | 
[V:1] B F G Fd4-d F G Fe4- | 
[V:2] D F E F B, D C D G, =A, B, C A, B, C D | 
[V:1] e F B =A d c e d g f e d c f e f | 
[V:2] B, C D E F E G F E D C E=A,4- | 
[V:1] d c B =A d c e d c B A cf4- | 
[V:2] A, D, G, ^F, B, =A, C B, E D C B, A, D C D | 
[V:1] f G c =B e d f e a g f e d g f g | 
[V:2] =B, F E D C _B, A, G, F, E, D, C, G,2 G,,2 | 
[V:1] e d c =B c d e G A _B A F f e d c | 
[V:2] C,2> D,2 E, F, G,2 !mordent!G,2 F,2 z2 F,2 | 
[V:1] =B a g f e d c B c d c d2< ~d2 c/ d/ | 
[V:2] !mordent!F,2 E,2- E, F, E, D, C, B,, A,, G,, F,, E,, F,, G,, | 
[V:1] e d c d e f g2 !mordent!g2 f2 z2 f2 | 
[V:2] C,,2 C, =B,, C, D, E, G,, A,, _B,, A,, F,, F, E, D, C, | 
[V:1] !mordent!f2 e d g f a g2< g2 a2< !mordent!d2 c | 
[V:2] =B,, A, G, F, E, D, C, B,, C, G,, A,, F,, G,,2 G,,2 | 
[V:1] !fermata!c16 |]  
[V:2] !fermata!C,,16 |]  


